svg/icon/mnz.svg

<svg xmlns="http://www.w3.org/2000/svg" xmlns:xlink="http://www.w3.org/1999/xlink" width="32" height="32" viewBox="0 0 32 32"><defs><linearGradient id="mnz-c" x1="50%" x2="50%" y1="0%" y2="100%"><stop offset="0%" stop-color="#FFF" stop-opacity=".5"/><stop offset="100%" stop-opacity=".5"/></linearGradient><circle id="mnz-b" cx="15" cy="15" r="15"/><filter id="mnz-a" width="111.7%" height="111.7%" x="-5.8%" y="-4.2%" filterUnits="objectBoundingBox"><feOffset dy=".5" in="SourceAlpha" result="shadowOffsetOuter1"/><feGaussianBlur in="shadowOffsetOuter1" result="shadowBlurOuter1" stdDeviation=".5"/><feComposite in="shadowBlurOuter1" in2="SourceAlpha" operator="out" result="shadowBlurOuter1"/><feColorMatrix in="shadowBlurOuter1" values="0 0 0 0 0 0 0 0 0 0 0 0 0 0 0 0 0 0 0.199473505 0"/></filter></defs><g fill="none" transform="translate(1)"><use fill="#000" filter="url(#mnz-a)" xlink:href="#mnz-b"/><use fill="#7F368A" fill-rule="evenodd" xlink:href="#mnz-b"/><use fill="url(#mnz-c)" fill-rule="evenodd" style="mix-blend-mode:soft-light" xlink:href="#mnz-b"/><circle cx="15" cy="15" r="14.5" stroke="#000" stroke-linejoin="square" stroke-opacity=".097"/><path fill="#FFF" d="M23.9705958,19.9837652 C24.0320712,20.2301718 23.7861696,20.3533751 23.6017434,20.2917734 L22.802563,20.2917734 L21.3271532,20.2917734 L20.8353499,20.2917734 L20.5279729,20.2917734 C20.3435467,20.2917734 20.2205958,20.2301718 20.097645,20.1685701 C19.9132188,20.1069685 19.790268,19.8605619 19.7287926,19.6141554 L19.7287926,19.5525537 L16.8394483,8.89546953 C16.7779729,8.89546953 16.5935467,9.08027446 16.5320712,9.08027446 C16.4705958,9.1418761 16.347645,9.20347775 16.2861696,9.1418761 C16.1632188,9.08027446 16.1017434,8.89546953 16.1632188,8.77226625 C16.2861696,8.46425803 16.5935467,8.27945311 16.9009237,8.21785146 C17.2697762,8.15624982 17.5771532,8.15624982 17.9460057,8.15624982 C18.4378089,8.15624982 18.9910876,8.15624982 19.4828909,8.15624982 C19.7287926,8.15624982 19.9746942,8.15624982 20.2205958,8.15624982 C20.4050221,8.15624982 20.5894483,8.15624982 20.7738745,8.21785146 C20.9583008,8.34105475 21.0197762,8.58746132 21.0812516,8.77226625 C21.2042024,9.20347775 21.2656778,9.63468925 21.3886286,10.0659007 C21.8804319,11.91395 22.3722352,13.7619993 22.8640385,15.6100486 C23.0484647,16.3492683 23.2328909,17.088488 23.4173171,17.8277077 C23.6017434,18.5053258 23.847645,19.2445455 23.9705958,19.9837652 Z M16.8394483,19.9837652 C16.9009237,20.2301718 16.6550221,20.3533751 16.4705958,20.2917734 L15.6714155,20.2917734 L14.1960057,20.2917734 L13.7042024,20.2917734 L13.3968253,20.2917734 C13.2123991,20.2917734 13.0894483,20.2301718 12.9664975,20.1685701 C12.7820712,20.1069685 12.6591204,19.8605619 12.597645,19.6141554 L12.597645,19.5525537 L9.70830075,8.89546953 C9.64682534,8.89546953 9.46239911,9.08027446 9.4009237,9.08027446 C9.33944829,9.1418761 9.21649747,9.20347775 9.15502206,9.1418761 C9.03207124,9.08027446 8.97059583,8.89546953 9.03207124,8.77226625 C9.15502206,8.46425803 9.46239911,8.27945311 9.76977616,8.21785146 C10.1386286,8.15624982 10.4460057,8.15624982 10.8148581,8.15624982 C11.3066614,8.15624982 11.8599401,8.15624982 12.3517434,8.15624982 C12.597645,8.15624982 12.8435467,8.15624982 13.0894483,8.15624982 C13.2738745,8.15624982 13.4583008,8.15624982 13.642727,8.21785146 C13.8271532,8.34105475 13.8886286,8.58746132 13.950104,8.77226625 C14.0730548,9.20347775 14.1345303,9.63468925 14.2574811,10.0659007 C14.7492844,11.91395 15.2410876,13.7619993 15.7328909,15.6100486 C15.9173171,16.3492683 16.1017434,17.088488 16.2861696,17.8277077 C16.4705958,18.5053258 16.7164975,19.2445455 16.8394483,19.9837652 Z M11.1837106,17.6429028 L10.4460057,19.9837652 C10.3845303,20.2301718 10.1386286,20.4149767 9.89272698,20.4149767 L6.63453026,20.4149767 C6.2656778,20.4149767 6.01977616,20.1069685 6.01977616,19.7989603 L6.01977616,19.675757 L8.60174337,9.94269746 C8.66321878,9.81949417 8.7861696,9.69629089 8.90912042,9.69629089 C9.09354665,9.69629089 9.21649747,9.81949417 9.21649747,9.94269746 L11.1837106,17.6429028 Z M18.4378089,17.4580979 L18.0074811,18.7517324 C17.9460057,18.8749357 17.8845303,18.9365373 17.7615794,18.9365373 C17.6386286,18.9365373 17.5771532,18.8749357 17.5156778,18.7517324 L15.3640385,11.236332 L15.7943663,9.69629089 C15.7943663,9.5730876 15.9173171,9.51148596 16.040268,9.51148596 C16.1632188,9.51148596 16.2861696,9.5730876 16.2861696,9.69629089 L18.4378089,17.4580979 Z"/></g></svg>

<svg xmlns="http://www.w3.org/2000/svg" xmlns:xlink="http://www.w3.org/1999/xlink" width="32" height="32" viewBox="0 0 32 32"><defs><linearGradient id="c" x1="50%" x2="50%" y1="0%" y2="100%"><stop offset="0%" stop-color="#FFF" stop-opacity=".5"/><stop offset="100%" stop-opacity=".5"/></linearGradient><circle id="b" cx="15" cy="15" r="15"/><filter id="a" width="111.7%" height="111.7%" x="-5.8%" y="-4.2%" filterUnits="objectBoundingBox"><feOffset dy=".5" in="SourceAlpha" result="shadowOffsetOuter1"/><feGaussianBlur in="shadowOffsetOuter1" result="shadowBlurOuter1" stdDeviation=".5"/><feComposite in="shadowBlurOuter1" in2="SourceAlpha" operator="out" result="shadowBlurOuter1"/><feColorMatrix in="shadowBlurOuter1" values="0 0 0 0 0 0 0 0 0 0 0 0 0 0 0 0 0 0 0.199473505 0"/></filter></defs><g fill="none" transform="translate(1)"><use fill="#000" filter="url(#a)" xlink:href="#b"/><use fill="#7F368A" fill-rule="evenodd" xlink:href="#b"/><use fill="url(#c)" fill-rule="evenodd" style="mix-blend-mode:soft-light" xlink:href="#b"/><circle cx="15" cy="15" r="14.5" stroke="#000" stroke-linejoin="square" stroke-opacity=".097"/><path fill="#FFF" d="M23.97 19.984c.062.246-.184.37-.368.308h-3.074a.887.887 0 0 1-.43-.123c-.185-.062-.308-.308-.37-.555v-.061L16.84 8.895c-.061 0-.245.185-.307.185-.061.062-.184.123-.246.062a.297.297 0 0 1-.123-.37c.123-.308.43-.493.738-.554.369-.062.676-.062 1.045-.062h2.275c.184 0 .368 0 .553.062.184.123.246.37.307.554.123.431.185.863.308 1.294l1.475 5.544.553 2.218c.185.677.43 1.417.554 2.156zm-7.13 0c.06.246-.185.37-.37.308h-3.073a.887.887 0 0 1-.43-.123c-.185-.062-.308-.308-.37-.555v-.061L9.709 8.895c-.061 0-.246.185-.307.185-.062.062-.185.123-.246.062-.123-.062-.184-.247-.123-.37.123-.308.43-.493.738-.554.369-.062.676-.062 1.045-.062h2.274c.185 0 .37 0 .554.062.184.123.246.37.307.554.123.431.185.863.307 1.294l1.476 5.544.553 2.218c.185.677.43 1.417.553 2.156zm-5.656-2.341l-.738 2.34a.59.59 0 0 1-.553.432H6.635a.617.617 0 0 1-.615-.616v-.123l2.582-9.733c.061-.124.184-.247.307-.247.185 0 .307.123.307.247l1.968 7.7zm7.254-.185l-.43 1.294c-.062.123-.123.185-.246.185s-.185-.062-.246-.185l-2.152-7.516.43-1.54c0-.123.123-.185.246-.185s.246.062.246.185l2.152 7.762z"/></g></svg>
